src/assets/svg/whatsapp.svg

<svg width="27" height="26" viewBox="0 0 27 26" fill="none" xmlns="http://www.w3.org/2000/svg">
<path d="M13.2488 0.286133C20.3498 0.286133 26.106 6.04229 26.106 13.1433C26.106 20.2443 20.3498 26.0005 13.2488 26.0005C10.9766 26.0042 8.74449 25.4028 6.78164 24.2583L0.396763 26.0005L2.13505 19.613C0.989598 17.6496 0.387824 15.4165 0.391619 13.1433C0.391619 6.04229 6.14778 0.286133 13.2488 0.286133ZM8.86707 7.10044L8.60993 7.11072C8.44345 7.12086 8.28076 7.1646 8.13164 7.23929C7.99217 7.31828 7.86485 7.41701 7.75364 7.53244C7.59935 7.67772 7.51192 7.80372 7.41807 7.92587C6.94251 8.54417 6.68646 9.30327 6.69035 10.0833C6.69292 10.7133 6.85749 11.3266 7.11464 11.9C7.6405 13.0597 8.50578 14.2876 9.6475 15.4255C9.92264 15.6993 10.1926 15.9745 10.4832 16.2303C11.9019 17.4793 13.5924 18.3801 15.4204 18.8609L16.1507 18.9728C16.3885 18.9856 16.6264 18.9676 16.8655 18.956C17.24 18.9367 17.6056 18.8353 17.9365 18.659C18.1049 18.5723 18.2692 18.4779 18.429 18.3762C18.429 18.3762 18.4842 18.3402 18.5897 18.2605C18.7632 18.1319 18.87 18.0406 19.014 17.8902C19.1207 17.7796 19.2132 17.6498 19.284 17.5019C19.3842 17.2923 19.4845 16.8925 19.5257 16.5595C19.5565 16.3049 19.5475 16.166 19.5437 16.0799C19.5385 15.9423 19.4241 15.7996 19.2994 15.7392L18.5511 15.4036C18.5511 15.4036 17.4325 14.9163 16.7485 14.6052C16.6769 14.5739 16.6003 14.5561 16.5222 14.5525C16.4343 14.5434 16.3454 14.5533 16.2616 14.5815C16.1777 14.6096 16.1009 14.6554 16.0362 14.7157C16.0298 14.7132 15.9437 14.7865 15.0141 15.9127C14.9607 15.9844 14.8872 16.0386 14.803 16.0684C14.7187 16.0982 14.6275 16.1022 14.5409 16.0799C14.4572 16.0574 14.3751 16.0291 14.2954 15.995C14.1359 15.9282 14.0807 15.9025 13.9714 15.8562C13.2335 15.5342 12.5503 15.0991 11.9464 14.5666C11.7844 14.4252 11.6339 14.2709 11.4796 14.1217C10.9738 13.6373 10.533 13.0893 10.1682 12.4915L10.0924 12.3693C10.0379 12.2872 9.99382 12.1987 9.96122 12.1057C9.91236 11.9167 10.0396 11.765 10.0396 11.765C10.0396 11.765 10.3521 11.423 10.4974 11.2379C10.6388 11.0579 10.7584 10.883 10.8355 10.7583C10.9872 10.514 11.0348 10.2633 10.9551 10.0692C10.5951 9.18973 10.2222 8.31415 9.83907 7.44501C9.76322 7.27272 9.53822 7.14929 9.33379 7.12487C9.26436 7.11715 9.19493 7.10944 9.1255 7.10429C8.95284 7.09572 8.77981 7.09743 8.60736 7.10944L8.86707 7.10044Z" fill="#141416" fillOpacity="0.7"/>
</svg>

<svg xmlns="http://www.w3.org/2000/svg" width="27" height="26" fill="none"><path fill="#141416" d="M13.249.286c7.1 0 12.857 5.756 12.857 12.857S20.35 26 13.249 26a12.8 12.8 0 0 1-6.467-1.742L.397 26l1.738-6.387a12.8 12.8 0 0 1-1.743-6.47C.392 6.043 6.148.286 13.249.286M8.867 7.1l-.257.01a1.2 1.2 0 0 0-.478.13q-.21.118-.378.292c-.155.146-.242.272-.336.394a3.5 3.5 0 0 0-.728 2.157c.003.63.167 1.244.425 1.817.526 1.16 1.39 2.388 2.533 3.525.275.274.545.55.835.805a12.15 12.15 0 0 0 4.937 2.63l.73.113c.239.013.476-.005.716-.017.374-.02.74-.12 1.07-.297q.253-.13.493-.283.001.002.16-.116c.174-.128.281-.22.425-.37.107-.11.2-.24.27-.388.1-.21.2-.61.242-.942.03-.255.021-.394.018-.48-.006-.138-.12-.28-.245-.34l-.748-.336s-1.118-.488-1.802-.799a.6.6 0 0 0-.227-.053.62.62 0 0 0-.486.164c-.006-.003-.092.07-1.022 1.197a.45.45 0 0 1-.473.167 2 2 0 0 1-.246-.085c-.16-.067-.214-.092-.324-.139a7.8 7.8 0 0 1-2.025-1.29c-.162-.14-.312-.295-.466-.444a8 8 0 0 1-1.312-1.63l-.076-.123a1.2 1.2 0 0 1-.13-.263c-.05-.19.078-.341.078-.341s.312-.342.457-.527a6 6 0 0 0 .338-.48c.152-.244.2-.495.12-.689q-.54-1.32-1.116-2.624c-.076-.172-.3-.296-.505-.32l-.208-.02a4 4 0 0 0-.519.004z"/></svg>
